X: 38039
T: Spider's Web, The
R: jig
M: 6/8
K: Gmajor
GBd g2 d|egd BAG|Bcd efg|{b}a2 g fed|
GBd g2 d|egd BAG|Bcd cAF|DEF G3:|
bag {a}gfg|bag {a}gfe|def gab|a2 g {g}fed|
bag b2g|{b}gfe dBG|Bcd cAF|DEF G3:|

